X: 36330
T: Sean Bui
R: jig
M: 6/8
K: Dmajor
|D2F A2A|BdB AFE|D2F AFA|B2c d2d|
D2F A2A|BdB AFA|fed cBA|B2c d2e|
fed cBA|BdB AFA|fed cBA|B2c d2e|
fed cBA|BdB AFE|D2F A2A|B2c d3|

